src/images_karasa_jaga_svg/cmd/lc_fontworkshapetype.fontwork-circle-pour.svg

<svg height="24" viewBox="0 0 24 24" width="24" xmlns="http://www.w3.org/2000/svg" xmlns:xlink="http://www.w3.org/1999/xlink"><linearGradient id="a" gradientUnits="userSpaceOnUse" x1="0" x2="127.9982" y1="64.0009" y2="64.0009"><stop offset="0" stop-color="#7c9fcf"/><stop offset=".5" stop-color="#7c9ece"/><stop offset="1" stop-color="#7b9dcf"/></linearGradient><linearGradient id="b" gradientUnits="userSpaceOnUse" x1="63.9991" x2="63.9991" y1="128" y2=".0018"><stop offset="0" stop-color="#fff"/><stop offset=".53340602" stop-color="#fff"/><stop offset=".9375" stop-color="#f1f1f1"/><stop offset=".96875" stop-color="#eaeaea"/><stop offset="1" stop-color="#dfdfdf"/></linearGradient><g transform="matrix(.171875 0 0 .171875 1 1)"><path d="m64 .00195313a63.9991 63.9991 0 0 0 -64 63.99804687 63.9991 63.9991 0 0 0 64 64 63.9991 63.9991 0 0 0 63.99805-64 63.9991 63.9991 0 0 0 -63.99805-63.99804687zm0 29.08984387a34.9086 34.9086 0 0 1 34.908203 34.908203 34.9086 34.9086 0 0 1 -34.908203 34.910156 34.9086 34.9086 0 0 1 -34.910156-34.910156 34.9086 34.9086 0 0 1 34.910156-34.908203z" fill="url(#a)"/><path d="m64 5.8199a58.179791 58.179791 0 0 0 -58.1801 58.1801 58.179791 58.179791 0 0 0 58.1801 58.1801 58.179791 58.179791 0 0 0 58.1801-58.1801 58.179791 58.179791 0 0 0 -58.1801-58.1801zm0 17.856284a40.322942 40.322942 0 0 1 40.32382 40.323816 40.322942 40.322942 0 0 1 -40.32382 40.32382 40.322942 40.322942 0 0 1 -40.323816-40.32382 40.322942 40.322942 0 0 1 40.323816-40.323816z" fill="url(#b)"/></g></svg>

<?xml version="1.0" encoding="UTF-8" standalone="no"?>
<!-- Created with Inkscape (http://www.inkscape.org/) -->

<svg
   xmlns:dc="http://purl.org/dc/elements/1.1/"
   xmlns:cc="http://creativecommons.org/ns#"
   xmlns:rdf="http://www.w3.org/1999/02/22-rdf-syntax-ns#"
   xmlns:svg="http://www.w3.org/2000/svg"
   xmlns="http://www.w3.org/2000/svg"
   xmlns:xlink="http://www.w3.org/1999/xlink"
   xmlns:sodipodi="http://sodipodi.sourceforge.net/DTD/sodipodi-0.dtd"
   xmlns:inkscape="http://www.inkscape.org/namespaces/inkscape"
   version="1.1"
   id="svg2"
   width="128"
   height="128"
   viewBox="0 0 128 128"
   sodipodi:docname="lc_fontworkshapetype.fontwork-circle-pour.svg"
   inkscape:export-filename="/home/rizmut/Dokumen/Rizmut/Github/libreoffice-style-karasa-jaga/build/images_karasa_jaga/cmd/lc_fontworkshapetype.fontwork-circle-pour.png"
   inkscape:export-xdpi="16.5"
   inkscape:export-ydpi="16.5"
   inkscape:version="0.92.3 (unknown)">
  <metadata
     id="metadata8">
    <rdf:RDF>
      <cc:Work
         rdf:about="">
        <dc:format>image/svg+xml</dc:format>
        <dc:type
           rdf:resource="http://purl.org/dc/dcmitype/StillImage" />
        <dc:title></dc:title>
      </cc:Work>
    </rdf:RDF>
  </metadata>
  <defs
     id="defs6">
    <linearGradient
       id="linearGradient7422">
      <stop
         style="stop-color:#7c9fcf;stop-opacity:1"
         offset="0"
         id="stop7424" />
      <stop
         id="stop5348"
         offset="0.5"
         style="stop-color:#7c9ece;stop-opacity:1" />
      <stop
         id="stop7426"
         offset="1"
         style="stop-color:#7b9dcf;stop-opacity:1" />
    </linearGradient>
    <linearGradient
       id="linearGradient3369">
      <stop
         id="stop3372"
         offset="0"
         style="stop-color:#ffffff;stop-opacity:1;" />
      <stop
         style="stop-color:#ffffff;stop-opacity:1;"
         offset="0.53340602"
         id="stop3374" />
      <stop
         style="stop-color:#f1f1f1;stop-opacity:1;"
         offset="0.9375"
         id="stop3376" />
      <stop
         id="stop3378"
         offset="0.96875"
         style="stop-color:#eaeaea;stop-opacity:1;" />
      <stop
         id="stop3384"
         offset="1"
         style="stop-color:#dfdfdf;stop-opacity:1;" />
    </linearGradient>
    <linearGradient
       inkscape:collect="always"
       xlink:href="#linearGradient7422"
       id="linearGradient1452"
       x1="0"
       y1="64.0009"
       x2="127.9982"
       y2="64.0009"
       gradientUnits="userSpaceOnUse" />
    <linearGradient
       inkscape:collect="always"
       xlink:href="#linearGradient3369"
       id="linearGradient1469"
       x1="63.9991"
       y1="128"
       x2="63.9991"
       y2="0.0018"
       gradientUnits="userSpaceOnUse" />
  </defs>
  <sodipodi:namedview
     pagecolor="#ffffff"
     bordercolor="#666666"
     borderopacity="1"
     objecttolerance="10"
     gridtolerance="10"
     guidetolerance="10"
     inkscape:pageopacity="0"
     inkscape:pageshadow="2"
     inkscape:window-width="1366"
     inkscape:window-height="706"
     id="namedview4"
     showgrid="true"
     inkscape:snap-page="true"
     inkscape:snap-global="true"
     inkscape:zoom="1.4142136"
     inkscape:cx="142.36069"
     inkscape:cy="78.969108"
     inkscape:window-x="0"
     inkscape:window-y="0"
     inkscape:window-maximized="1"
     inkscape:current-layer="svg2"
     inkscape:snap-smooth-nodes="true">
    <inkscape:grid
       type="xygrid"
       id="grid1442"
       spacingx="5.8181"
       spacingy="5.8181"
       empspacing="1" />
  </sodipodi:namedview>
  <g
     id="g1461">
    <path
       id="path1444"
       d="M 64 0.001953125 A 63.9991 63.9991 0 0 0 0 64 A 63.9991 63.9991 0 0 0 64 128 A 63.9991 63.9991 0 0 0 127.99805 64 A 63.9991 63.9991 0 0 0 64 0.001953125 z M 64 29.091797 A 34.9086 34.9086 0 0 1 98.908203 64 A 34.9086 34.9086 0 0 1 64 98.910156 A 34.9086 34.9086 0 0 1 29.089844 64 A 34.9086 34.9086 0 0 1 64 29.091797 z "
       style="opacity:1;fill:url(#linearGradient1452);fill-opacity:1;stroke:none;stroke-width:8;stroke-linecap:round;stroke-linejoin:round;stroke-miterlimit:4;stroke-dasharray:none;stroke-dashoffset:0;stroke-opacity:1" />
    <path
       inkscape:connector-curvature="0"
       id="circle20802"
       d="M 64,5.8199 A 58.179791,58.179791 0 0 0 5.8199,64 58.179791,58.179791 0 0 0 64,122.1801 58.179791,58.179791 0 0 0 122.1801,64 58.179791,58.179791 0 0 0 64,5.8199 Z m 0,17.856284 A 40.322942,40.322942 0 0 1 104.32382,64 40.322942,40.322942 0 0 1 64,104.32382 40.322942,40.322942 0 0 1 23.676184,64 40.322942,40.322942 0 0 1 64,23.676184 Z"
       style="opacity:1;fill:url(#linearGradient1469);fill-opacity:1;stroke:none;stroke-width:4.85127258;stroke-linecap:square;stroke-linejoin:bevel;stroke-miterlimit:4;stroke-dasharray:none;stroke-dashoffset:0;stroke-opacity:1" />
  </g>
</svg>
